X:108
T:Heave Away, Boys, Heave Away (b)
M:3/4
L:1/8
K:Bb
F2|\
F2 d3 c|B2 F2 FF|G2 B2 G2|F6|
A3 A A2|A2 G2 A2|B4    F2|
F2 d3 c|B2 F2 FF|G2 B2 G2|F6|
A3 A A2|A2 G2 A2|B4 ||
